X:1
T:Buxtehude - Chaconne in C Minor. {Professional production full score.}
T:Buxtehude Praeludium in C Major BuxWV 136
%%score { ( 1 2 6 ) | ( 3 5 ) | 4 }
L:1/8
Q:1/4=80
M:4/4
K:C
V:1 treble nm="Pipe Organ" snm="Org."
V:2 treble 
V:6 treble 
V:3 bass 
V:5 bass 
V:4 bass-8 
V:1
!f! z/ G,/A,/B,/[Q:1/4=100] C/D/E/F/[Q:1/4=120] G/E/F/G/[Q:1/4=140] A/B/c/d/ | %1
[Q:1/4=80] Pe4 z/ d/g/f/ e2 | d4- d/d/c/B/ c2- | c/c/=B/A/ B2 z/ B/c/d/ e2- | %4
 e/e/d/c/ d4- d/e/=f/g/ | ^cB/c/ d3/2c/4d/4 e2 z/ B/=c/d/ | ^GF/G/ A2- A/A/=G/^F/ G2- | %7
 G/G/F/E/ MF2 E2 E/^F/G | =F3 E/F/ =G2 z/ G/A/B/ | A2- A/B/c/d/ B/d/c/B/ c2- | %10
 c/A/B/c/ PB2 z/ G/A/B/ c2 | z/ f/e/d/ e/B/c/A/[Q:1/4=80] Bc[Q:1/4=60]"^(""^)" Tc>B | %12
 !breath!c4[Q:1/4=80]"^Fuga"!mp! z4 | z/ cB/ _B2 AGA=B | cB/A/ G/e/d/c/ B/c/d- d/G/c | %15
 d/A/c- c/d/c/B/ Pc>d eB/c/ | d3 A/B/ cdGA | Bcde A2- A/B/Mc | G3 A BdeP^f | g2 z2 z4 | z8 | %21
 ccce =B2 z d | AB cB/A/ GABc | de Pfe/d/ e/f/e/d/ c/d/c/B/ | A4 z/ G/=F/E/ F>D | E4 z4 | z8 | z8 | %28
 z8 | GGGA ME2 z G | DE FE/D/ CDEF | G3 A D2- D/E/MF | E4 z G^F=F- | FE/D/ EP^F G4- | %34
 G2 ^F2 G2- G/=F/E/G/ | FG AG/F/ E2 z2 | eeeg d2 z f | cded cB B2 | ccce B2 z d | AB cB/A/ GABc | %40
 d3 e f2 e2 | d2 z2 z cB_B- | BA/G/ A=B c3 d | ede^f g2 z d/e/ | fgcd e2[Q:1/4=120] !breath!z2 | %45
[Q:1/4=80] z/ e/d/^c/ d/^F/G/A/ z2 z/ B/c- | c>^cMB>A B4 | z/ A/PB/c/ d2- d4 | %48
 G4- G/4A/4G/4F/4 z/ c/ z/ Bc/ | z/ c/^F/G/ G>A _BB/c/4d/4"^(""^)" Pc>B | A8 | %51
 A2- A/B/c/d/ z G/A/ G2- | G_B"^(""^)" PA>G A2 _A2- |[Q:1/4=40] A_B/c/"^(""^)" PG>F MG4 || %54
!f![Q:1/4=80]"^allegro" c>c eB/c/ d/e/d/c/ B/A/G | Becc- cPB c2 | z c B/c/d/e/ Ad- d/c/B/A/ | %57
 G/A/G/F/ E/F/G/A/ DG- G/F/E/D/ | g>g ae/f/ g/a/g/f/ e/d/c | eagg- gP^f g2 | %60
 c>c eB/c/ d/e/d/c/ B/A/G | g/a/g/f/ e/f/e/d/ c/d/c/_B/ A/B/A/G/ | %62
 f/g/f/e/ d/e/B/c/ B/A/G/F/ E/G/E/C/ | %63
 e/4f/4g/4f/4e/4f/4d/4e/4 c/4d/4e/4d/4c/4B/4A/4G/4[Q:1/4=70] c2"_(""_)" z c | %64
[Q:1/4=60] B[Q:1/4=50]c[Q:1/4=40]B[Q:1/4=30]PA !breath!B4 ||[M:12/8][Q:1/4=120]!fff! z6 z2 z z2 G | %66
 ABc- c2 PB cde B2 c | d2 A c2 d GAB cBPA | B3 z3 z6 | z6 c2 c edc | B2 d A2 B =c2 B A2 d | %71
 B3 A2 G A2 B A3 | G2 A F2 G E3 G2 z | z3 z z d e^fg g2 f | g2 g cde fed e3 | z12 | z12 | %77
 g2 g agf e2 g d2 e | =f2 e d2 g e3 z3 | z12 | c2 c edc B2 ^c d=cB | A2 B cBA G z A B z ^c | %82
 d z ^G A=GF E3 z3 | z6 G2 G AG=F | cBA edc gfe Pd2 e- | eAd- dcB Mc3 PB3 | %86
 c z z c z z B z z B z z | A z z A z z G z z G z z | A z z B z z c z z c z z | %89
 B z z d z z e z z A z z | B z z c z z d z z d z z | c z z c z z B z z c z z | %92
 c z z B z z c z z c z z | c z z[Q:1/4=130] c z z[Q:1/4=140] c z z[Q:1/4=150] B z z | %94
[Q:1/4=140] z B z[Q:1/4=130] z c z[Q:1/4=120] z c z[Q:1/4=100] z B z | %95
[Q:1/4=80] c2 d B3[Q:1/4=40] !fermata!c6 |] %96
V:2
 z8 | z/ G/A/B/ c2 z2 z/ d/c/B/ | A2 G/A/G/F/ E2 z/ _B/A/G/ | F2- F/F/E/F/ G2- G/G/F/G/ | %4
 A4- A/D/E/^F/ PG2 | A4- A/E/F/G/ F2 | E2- E>C D2 z/ =F/E/D/ | ^C2- C/C/D- D/B,/C/D/- D>C | %8
 D2- D<D- D/D/=C/B,/ C2- | C4 D2 z/ G/F/E/ | D2 z/ A/G/F/ E2- E/G/F/E/ | D2 z/ D/E/^F/ GG =F2 | %12
 E4 GGGA | ME2 z G DE FE/D/ | CDEF G/A/F/G/ E>A | MF>E D2 E A2 G- | G/G^F/ =F2 EDE^F | %17
 G4- G^F/E/ =F2- | FE/D/ E^F G B2 c | G3 D/E/ =FGCPD | EFGA D3 E/F/ | E4 F2 ED | E2 D4 C2- | %23
 C3 B, C4- | C/B,/C/A,/ D/A,/B,/C/ B,C- C/A,/PB, | C4 z4 | z8 | CCCE MB,2 z D | %28
 A,B, CB,/A,/ G,A,B,C | D2 CB,/A,/ B,A,/B,/ C2- | CC _B,2 A,=B, C2- | %31
 C/D/C/B,/ C2- C/B,/C/A,/ B,2 | C3 B,/C/ D3 x | x8 | x8 | x6 EF | G4 z G^F=F | F2 EF EF ME>D | %38
 CD PE>F G2 z D- | D2 CPD ED/C/ D2- | DEFG AB c2- | cB/A/ Bc G2 z G | FE/D/ CD EFGA | B3 c GcB_B- | %44
 BA/G/ A=B c2 G/A/B/c/ | z4 z/ E/=F/G/ A2- | A>AMG>^F G4 | %47
 z2 z/ ^F/MG/A/ z/ E/=F/G/ F-F/4G/4F/4G/4 | E4- EE DE | z4 G4- | G2 PE>F F4 | F4 F3 F | %52
 EE/4F/4G/ F>E F>E F/E/F/4E/4F/4E/4 | F2 PE>D ME4 || z8 | G>G AE/F/ G/A/G/F/ E/D/C | %56
 EAGG- GP^F G2 | B,ECC- CPB, C2 | x8 | c>c eB/c/ d/e/d/c/ B/A/G- | GP^F G2 MA2 G z | %61
 x2 c/d/c/_B/ A/B/A/G/ F/G/F/E/ | x8 | %63
 G/4F/4E/4F/4G/4A/4F/4G/4 E/4F/4G/4F/4E/4D/4C/4B,/4 A,/4B,/4C/4D/4E/4^F/4G/4A/4 TF3/2E/4F/4 | %64
 G/4^F/4G/4F/4G/4F/4G/4F/4 G/4F/4G/4F/4G/4F/4G/4F/4 G4 ||[M:12/8] G2 G AGF E2 F D2 E | %66
 F2 E D2 G E3 GFE | DEF- FED E^FG- G2 PF | G3 E3 G2 D F2 G | CDE FED E3 G2 A- | %70
 A G2- GE^F G2 D E2 A- | A^FG- GFE F2 G- G2 =F- | FDE D2 D C3 B,2 C | %73
 D2 A, C2 D[I:staff +1] G,[I:staff -1]CD E2 D | D2 G ABc- c2 G G2 G | CDE F2 z DEF G3 | %76
 F3 E3 D2 G E2 F | G2 c A2 B c3- ccB | c2 G A2 z G2 G AGF | ME3 z3 z6 | G3 z z A G2 G A2 G | %81
 F3 G2 z E z ^F G z G | F z D E2 D C2 C EDC | B,EB, C2 D- D C2- C B,2 | C2 D E2 F G3- GFE | %85
 F3 E3- E A2- A2 ^G | AEA AEA A^FA GEG | GEG =FDF FDF ECE | ^FDF GDG GEG FDF | GDG GDG GEG ^FEF | %90
 ^GEG AEA AGA =G^FG | G=FG FEF FEF EAE | ADA GDG AEA ADA | GEG GEG GDG GDF | %94
 E2 [EG] [EG]2 [EG] [DF]2 [DF] [D^F]2 [DF] | E2 F D3 C6 |] %96
V:3
 z z/ G,/ A,/B,/C/D/ E/C/D/E/ F/D/E/B,/ | C2 z/4 G,/4A,/4B,/4C/4D/4E/4F/4 z4 | %2
 z/ G/F/E/ D2 G,2 A,2- | A,B,/C/ D3 C/B,/ C2- | CA,- A,/A,/B,/C/ B,4 | z/ E/D/E/ F/^C/D/A,/- A,4 | %6
 z/ B,/A,/B,/ C/^G,/A, D,3 D, | E,A,- A,>G, A,4- | A,/^G,/A,/B,/ A,2 =G,4- | %9
 G,/G,/F,/E,/ F,A, G,4- | G,4 z2 z/ E/D/C/ | B,2 C2 DE D2 | C4 z4 | z8 | z8 | z4 CCCE | %16
 MB,2 z D A,B, CB,/A,/ | G,A,B,C D3 A, | B,G, C2 D2 z2 | z CB,_B,- B,A,/G,/ A,=B, | %20
 C4- CB,/A,/ _B,2- | B,A,/G,/ A,3 A, G,2- | G,3 ^F, G,4 | A,2 F,2 G,4 | z8 | G,G,G,A, ME,2 z G, | %26
 D,E, F,E,/D,/ C,D,E,F, | G,2 A,3 G,/^F,/ G,2- | G,G, =F,2 E,^F,G,A, | B,2 E,^F, G,2 A,E, | %30
 G,2 D,E, F,E,/D,/ C,/B,,/A,,/A,/ | E,3 ^F, TG,4- | G,4- G,2 z2 | C4 B,CDE | %34
 A,PB, =CB,/A,/ G,A,B,^C | DP=C/B,/ A,B, C>[I:staff -1]D[I:staff +1] x2 | CCCE B,2 z D | %37
 A,PB, CB,/A,/ ^G, PA,2 G, | A,B, PC>D E2 A,2- | A,G,/F,/ G,PA, B, z G,A, | B,C D3 DE^F | %41
 G3 E E2 z D- | DC/_B,/ A,G,/F,/ G, z z2 |[K:treble] GGGA E2 z G | DE FE/D/ C/D/E/F/ z2 | %45
 z4[K:bass] D3- D/D/ | D>EMD>^C !breath!D4 | z4 D4- | D/D/C/D/ C/D/C/4D/4C/4B,/4 C4 | z4 C4- | %50
 C8- | C6 B,2 | C8- | C8 || z8 | z8 | C>C EB,/C/ D/E/D/C/ B,/A,/G, | %57
 G,>G, A,E,/F,/ G,/A,/G,/F,/ E,/D,/C, | C/D/C/_B,/ A,/=B,/C- C/C/B, C2 | z8 | %60
 G,C B,/C/D/E/ A,D- D/C/B,/A,/ | G,2 x6 | D/E/D/C/ B,/C/D/E/ D/C/B,/D/ C/E/C/G,/ | x4 z2 C2 | %64
 DEDP^C D4 ||[M:12/8] z12 | z6 C2 C EDC | B,2 D A,2 B, C2 B, A,2 D- | DEB, C3- C2 B, _B,A,G, | %69
 A,B,C- C2 PB, C3- CB,A, | E2 B, ^C2 D G,A,B, =CB,A, | PB,3 C3- CCB, ^CA,D | %72
 B,2 =C- C2 B,- B, A,2 G,2 A, | D,E,F,- F,E,D, G,A,B, CB,A, | B,2 E F2 E D2 G, C,D,E, | %75
 A,B,C D2 z B,CD E3- | E2 D- D2 C- C2 B, C2 D | E2 C- C2 D E3 ^F2 G | CDE FED EC z z3 | %79
 MC2 C EDC MB,3 z3 | G,3 x2 D D2 E FED | C2 D E2 z z z C D z G, | A, z B, CB,A, G,3 z3 | %83
 G,2 G, A,G,F, E,3 ^F, G,2 | A,2 B, C2 D EDC B,2 ^C | D3 ^G,3 A,2 C DB,E | %86
 A, z z C z z D z z E z z | ^C z z D z z B, z z =C z z | C z z B, z z A, z z D z z | %89
 G, z z B, z z ^C z z D z z | D z z =C z z B, z z E z z | A, z z D z z G, z z A, z z | %92
 ^F, z z G, z z G,3 PF,3 | !trill(!TG,12- | G,12- | !trill)!G,6 G,6 |] %96
V:4
 z8 | C,4 B,,2 C,2- | C,2 B,,2 C,2 A,,2 | D,3 D, E,3 E, | F,2 ^F,2 G,4- | G,2 F,2 ^C,2 D,2- | %6
 D,2 C,2 B,,4 | A,,8 | D,,4 E,,4 | F,,6 E,,2 | G,,8- | G,,8 | C,4 z4 | z8 | z8 | z8 | z8 | z8 | %18
 z4 G,G,G,A, | E,2 z G, D,E, F,E,/D,/ | C,D,E,F, G,3 G,, | C,3 C, D,2 E,B,, | C,2 D,2 E,4 | %23
 =F,2 D,2 C,2 E,,2 | F,,2 ^F,,2 G,,4 | C,,4 z/ C,B,,/ _B,,2- | _B,,A,,/G,,/ A,,=B,, C,3 D, | %27
 E,2 C,2 D,2 E,B,, | D,2 A,,B,, C,2 B,,A,, | G,,2 z2 z4 | z8 | z8 | C,C,C,E, B,,2 z D, | %33
 A,,B,, C,B,,/A,,/ G,,A,,B,,^C, | D,4 E,3 E, | D,E, F,E,/D,/ A,A,,B,,C, | E,C, E,>^F, G,2 z D, | %37
 =F,2 C,D, E,D, E,2 | A,,2 A,2 z G,^F,=F,- | F,E,/D,/ E,^F, G,2 z2 | z8 | G,G,G,A, E,2 z G, | %42
 D,E, F,E,/D,/ C,D,E,PF, | G,2 z2 z4 | z8 |!mf! ^F,8 | G,8 |!mf! B,,8 | C,8 |!mp! C,,8 | F,,8 | %51
 D,,8 | C,,8- | C,,8 || z8 | z8 | z8 | z8 | z8 | z8 | E,A,G,G,- G,^F, G,2 | z E, A,2 z A,, D,2 | %62
 z D, G,,2 z G,, C,2 | z4 z2 A,,2 | G,,8 ||[M:12/8] z12 | z12 | z12 | G,2 G, A,G,F, E,2 G, D,2 E, | %69
 F,2 E, D,2 G, C,3 z3 | z3 z z D, E,^F,G,- G,2 F, | G,3 z3 z6 | z6 C,2 C, E,D,C, | %73
 B,,2 D, A,,2 B,, C,2 B,, A,,2 D, | G,,3 z3 z6 | z12 | z12 | z12 | z12 | z12 | z12 | z12 | z12 | %83
 z12 | z12 | z12 | z12 | z12 | z12 | z12 | z12 | z12 | z12 | z12 | z12 | G,,6 [C,,C,]6 |] %96
V:5
 x8 | x8 | x8 | x8 | x8 | x8 | x8 | x8 | x8 | x8 | x8 | x8 | x8 | x8 | x8 | x8 | x8 | x8 | x8 | %19
 x8 | x8 | x8 | x8 | x8 | x8 | x8 | x8 | x8 | x8 | x8 | x8 | x8 | x7 A,/B,/ | z8 | z8 | z8 | x8 | %37
 x8 | x8 | x8 | x8 | x8 | x8 |[K:treble] x8 | x8 | x4[K:bass] x4 | x8 | x8 | x8 | x8 | x8 | x8 | %52
 x8 | x8 || x8 | x8 | x8 | x8 | E,2 F,A, E,G, C,2 | x8 | x8 | x8 | x8 | x8 | x8 ||[M:12/8] x12 | %66
 x12 | x12 | x12 | x12 | x12 | x12 | x12 | x12 | x12 | F,2 z D,E,F, G,2 z E,F,G, | %76
 A,A,,B,, C,E,^F, G,2 G, A,G,=F, | E,2 E, F,E,D, C,3 z z G, | A,B,C C2 B, C3 z3 | %79
 z6 MG,2 G, A,G,F, | E,3 z z ^F, G,=F,E, D,2 E, | F,E,D, C,2 z CB,A, G,=F,E, | %82
 D,=C,B,, A,,2 B,, C,3 z3 | x12 | x12 | x12 | x12 | x12 | x12 | x12 | x12 | x12 | x12 | x12 | x12 | %95
 x12 |] %96
V:6
 x8 | x8 | x8 | x8 | x8 | x8 | x8 | x8 | x8 | x8 | x8 | x8 | x8 | x8 | x8 | x8 | x8 | x8 | x8 | %19
 x8 | x8 | x8 | x8 | x8 | x8 | x8 | x8 | x8 | x8 | x8 | x8 | x8 | x8 | x8 | x8 | x8 | x8 | x8 | %38
 x8 | x8 | x8 | x8 | x8 | x8 | x8 | x8 | x8 | x8 | x8 | x8 | x8 | x8 | x8 | x8 || x8 | x8 | x8 | %57
 x8 | x8 | x8 | x8 | x8 | x8 | x8 | x8 ||[M:12/8] x12 | x12 | x12 | x12 | x12 | x12 | x12 | x12 | %73
 x5 G G3 A3 | G2 x6 B c3 | x12 | x12 | x12 | x12 | x12 | x12 | x12 | x12 | x12 | E x2 G x2 B x5 | %85
 x12 | x12 | x12 | x12 | x12 | x12 | x12 | x12 | x12 | G2 x10 | z G=A z EF E6 |] %96

